assets/advantage2.svg

<svg fill="none" xmlns="http://www.w3.org/2000/svg" viewBox="0 0 63 63">
  <path d="M40.6669 62.9044c-8.9585 0-19.1255-5.1191-27.5863-14.0064C4.12222 40.0107-.641379 29.6303.0696063 20.4586v-.4266L.354 19.6765c.71099-.8532 1.35087-1.5642 1.99076-2.204 1.42197-1.422 3.05723-2.7018 4.7636-3.7683l1.13758-.7109.78208 1.1375c2.48848 3.7683 5.33238 7.5365 8.38958 11.2336l.711.9243-.711.9243c-.0711.1422-.2844.2844-.4976.4265l-3.6261 2.4174c-.2133.1422-.2844.3555-.2844.4977-.0711.4977.0711 1.0665.3555 1.4931.9954 1.4219 5.048 5.9722 8.2475 9.3139 3.2705 3.1283 7.8919 7.1809 9.3139 8.1763.4977.3555 1.0664.4977 1.493.3555.1422 0 .3555-.0711.4977-.2844l.8532-1.2798c.4977-.7821.9954-1.5642 1.5642-2.3462.1422-.2133.3555-.3555.4266-.4977l.9242-.711.9243.711c3.6971 3.0572 7.4654 5.8301 11.2336 8.3896l1.1376.7821-.711 1.1376c-1.0665 1.7063-2.3463 3.2705-3.7682 4.7636-.711.6398-1.422 1.2797-2.2752 1.9907l-.3555.2844h-.4266c-.5688.0711-1.1376.0711-1.7774.0711ZM2.84245 21.0985c-.2133 4.2659.71098 14.3619 12.30005 25.8087 8.3185 8.7452 18.2012 13.5799 26.6619 13.1533.6399-.4977 1.1376-.9954 1.6353-1.4931.9243-.9243 1.8486-1.9908 2.6306-3.1283-3.0572-2.0619-6.1144-4.337-9.1006-6.7544-.2844.4266-.4977.7821-.782 1.2087l-.8532 1.2798c-.4977.782-1.3509 1.3508-2.3463 1.493-1.2087.2133-2.5595-.0711-3.6971-.8532-1.7775-1.2086-6.7544-5.7589-9.6694-8.4607l-.0711-.0711c-2.7017-2.8439-7.3231-7.963-8.5318-9.6694-.7821-1.1376-1.0665-2.4173-.8532-3.6971.2133-.9954.711-1.8486 1.4931-2.3462l2.4884-1.6353c-2.4173-2.9862-4.69249-6.0434-6.75435-9.1006-1.13757.7821-2.13295 1.6352-3.12833 2.6306-.35549.4977-.85318.9954-1.42197 1.6353ZM36.6853 46.6229l.9243 1.1375-.9243-1.1375Z" fill="#F86A2E"/>
  <path d="M35.1923 38.2332H22.1101l-.0711-1.2797c0-.1422-.2133-3.2706 2.4885-7.181 1.1376-1.7064 3.1283-3.0572 5.048-4.4081 1.9907-1.3509 4.1948-2.915 4.1948-4.1237v-.7821c0-2.3463-1.9197-4.1948-4.1948-4.1948-2.3463 0-4.1948 1.9196-4.1948 4.1948h-2.844c0-3.9104 3.1995-7.0388 7.0388-7.0388 3.9104 0 7.0387 3.1995 7.0387 7.0388v.7821c0 2.6306-2.6306 4.4792-5.4746 6.4699-1.7063 1.2087-3.4838 2.4174-4.337 3.6972-1.1375 1.6352-1.6352 3.1283-1.8485 4.0526h10.1671v2.7728h.0711ZM47.8478 14.0597h-2.844V38.091h2.844V14.0597Z" fill="#fff"/>
  <path d="M50.194 32.4743H36.1876l-1.2086-2.133 10.0959-16.2816 2.4174 1.4931-8.7451 14.0775H50.194v2.844Z" fill="#fff"/>
  <path d="m13.8627 10.7892-1.9908-1.99075c.3555-.35549.711-.71099 1.0665-.99538l1.9197 2.13295c-.3555.21328-.6399.56878-.9954.85318ZM57.0195 47.6893l-2.2751-1.7063c.4976-.711.9953-1.422 1.493-2.2041l2.4174 1.4931c-.4977.7821-1.0665 1.6352-1.6353 2.4173Zm2.9861-5.048-2.5595-1.2086c.3555-.7821.711-1.6353.9954-2.4174l2.7017.9243c-.3555.9243-.711 1.8486-1.1376 2.7017Zm1.9908-5.5457-2.7728-.7109c.2133-.8532.3555-1.7064.4976-2.6307l2.844.4266c-.1422.9954-.3555 1.9908-.5688 2.915Zm.8532-5.7589-2.844-.1422v-2.6307l2.844-.1422c0 .4977.0711.9954.0711 1.4931-.0711.4977-.0711.9243-.0711 1.422Zm-3.1284-5.4035c-.1421-.8532-.2843-1.7775-.4976-2.6307l2.7728-.7109c.2133.9242.4266 1.9196.5688 2.8439l-2.844.4977Zm-1.2797-5.1191c-.2844-.8532-.6399-1.6353-.9954-2.4174l2.5595-1.2086c.4266.8532.7821 1.7774 1.1376 2.7017l-2.7017.9243Zm-2.2752-4.8347c-.4266-.7821-.9243-1.4931-1.493-2.2041l2.2751-1.7063c.5688.7821 1.1376 1.6352 1.6353 2.4173l-2.4174 1.4931Zm-3.1994-4.1948c-.2844-.3555-.5688-.6399-.9243-.9243-.2844-.2844-.6399-.6399-.9954-.92428l1.9197-2.13296c.3555.3555.711.63989 1.0665.99538.3555.35549.6399.71099.9953 1.06648l-2.0618 1.91968Zm-3.9104-3.55495c-.711-.49769-1.422-.99538-2.2041-1.49307l1.4931-2.41735c.8532.49769 1.6353 1.06648 2.4173 1.63527l-1.7063 2.27515Zm-32.1366 0L15.2136 5.9545c.7821-.56879 1.6352-1.13758 2.4173-1.63527l1.4931 2.41735c-.7821.4266-1.4931.92429-2.2041 1.49307Zm27.6574-2.77284c-.7821-.35549-1.6353-.71098-2.4174-.99538l.9243-2.70174c.9243.35549 1.8486.71098 2.7017 1.13757l-1.2086 2.55955Zm-23.1071 0-1.2086-2.55955c.8532-.42659 1.7774-.78208 2.7017-1.13757l.9243 2.70174c-.7821.2844-1.6353.63989-2.4174.99538Zm18.0591-1.77746c-.8532-.2133-1.7064-.35549-2.6307-.49769l.4266-2.843942c.9954.142197 1.9197.355493 2.844.568788l-.6399 2.772844Zm-13.0822 0L25.7362.906506c.9242-.213295 1.9196-.426591 2.8439-.568788l.4266 2.843942c-.8532.1422-1.7064.28439-2.5596.49769Zm7.892-.78209h-2.6307L31.5662.0533239c.9954-.0710985 1.9197-.0710985 2.9151 0L34.3391 2.89726ZM54.1045 51.031l-1.9908-1.9908c.3555-.3555.6399-.6399.9243-.9954l2.1329 1.9197c-.3555.3555-.7109.711-1.0664 1.0665Z" fill="#F86A2E"/>
</svg>

<svg width="63" height="63" viewBox="0 0 63 63" fill="none" xmlns="http://www.w3.org/2000/svg">
<path d="M40.6669 62.9044C31.7084 62.9044 21.5414 57.7853 13.0806 48.898C4.12222 40.0107 -0.641379 29.6303 0.0696063 20.4586V20.032L0.354 19.6765C1.06499 18.8233 1.70487 18.1123 2.34476 17.4725C3.76673 16.0505 5.40199 14.7707 7.10836 13.7042L8.24594 12.9933L9.02802 14.1308C11.5165 17.8991 14.3604 21.6673 17.4176 25.3644L18.1286 26.2887L17.4176 27.213C17.3465 27.3552 17.1332 27.4974 16.92 27.6395L13.2939 30.0569C13.0806 30.1991 13.0095 30.4124 13.0095 30.5546C12.9384 31.0523 13.0806 31.6211 13.365 32.0477C14.3604 33.4696 18.413 38.0199 21.6125 41.3616C24.883 44.4899 29.5044 48.5425 30.9264 49.5379C31.4241 49.8934 31.9928 50.0356 32.4194 49.8934C32.5616 49.8934 32.7749 49.8223 32.9171 49.609L33.7703 48.3292C34.268 47.5471 34.7657 46.765 35.3345 45.983C35.4767 45.7697 35.69 45.6275 35.7611 45.4853L36.6853 44.7743L37.6096 45.4853C41.3067 48.5425 45.075 51.3154 48.8432 53.8749L49.9808 54.657L49.2698 55.7946C48.2033 57.5009 46.9235 59.0651 45.5016 60.5582C44.7906 61.198 44.0796 61.8379 43.2264 62.5489L42.8709 62.8333H42.4443C41.8755 62.9044 41.3067 62.9044 40.6669 62.9044ZM2.84245 21.0985C2.62915 25.3644 3.55343 35.4604 15.1425 46.9072C23.461 55.6524 33.3437 60.4871 41.8044 60.0605C42.4443 59.5628 42.942 59.0651 43.4397 58.5674C44.364 57.6431 45.2883 56.5766 46.0703 55.4391C43.0131 53.3772 39.9559 51.1021 36.9697 48.6847C36.6853 49.1113 36.472 49.4668 36.1877 49.8934L35.3345 51.1732C34.8368 51.9552 33.9836 52.524 32.9882 52.6662C31.7795 52.8795 30.4287 52.5951 29.2911 51.813C27.5136 50.6044 22.5367 46.0541 19.6217 43.3523L19.5506 43.2812C16.8489 40.4373 12.2275 35.3182 11.0188 33.6118C10.2367 32.4742 9.9523 31.1945 10.1656 29.9147C10.3789 28.9193 10.8766 28.0661 11.6587 27.5685L14.1471 25.9332C11.7298 22.947 9.45461 19.8898 7.39275 16.8326C6.25518 17.6147 5.2598 18.4678 4.26442 19.4632C3.90893 19.9609 3.41124 20.4586 2.84245 21.0985ZM36.6853 46.6229L37.6096 47.7604L36.6853 46.6229Z" fill="#F86A2E"/>
<path d="M35.1923 38.2332H22.1101L22.039 36.9535C22.039 36.8113 21.8257 33.6829 24.5275 29.7725C25.6651 28.0661 27.6558 26.7153 29.5755 25.3644C31.5662 24.0135 33.7703 22.4494 33.7703 21.2407V20.4586C33.7703 18.1123 31.8506 16.2638 29.5755 16.2638C27.2292 16.2638 25.3807 18.1834 25.3807 20.4586H22.5367C22.5367 16.5482 25.7362 13.4198 29.5755 13.4198C33.4859 13.4198 36.6142 16.6193 36.6142 20.4586V21.2407C36.6142 23.8713 33.9836 25.7199 31.1396 27.7106C29.4333 28.9193 27.6558 30.128 26.8026 31.4078C25.6651 33.043 25.1674 34.5361 24.9541 35.4604H35.1212V38.2332H35.1923Z" fill="white"/>
<path d="M47.8478 14.0597H45.0038V38.091H47.8478V14.0597Z" fill="white"/>
<path d="M50.194 32.4743H36.1876L34.979 30.3413L45.0749 14.0597L47.4923 15.5528L38.7472 29.6303H50.194V32.4743Z" fill="white"/>
<path d="M13.8627 10.7892L11.8719 8.79845C12.2274 8.44296 12.5829 8.08746 12.9384 7.80307L14.8581 9.93602C14.5026 10.1493 14.2182 10.5048 13.8627 10.7892Z" fill="#F86A2E"/>
<path d="M57.0195 47.6893L54.7444 45.983C55.242 45.272 55.7397 44.561 56.2374 43.7789L58.6548 45.272C58.1571 46.0541 57.5883 46.9072 57.0195 47.6893ZM60.0056 42.6413L57.4461 41.4327C57.8016 40.6506 58.1571 39.7974 58.4415 39.0153L61.1432 39.9396C60.7877 40.8639 60.4322 41.7882 60.0056 42.6413ZM61.9964 37.0956L59.2236 36.3847C59.4369 35.5315 59.5791 34.6783 59.7212 33.754L62.5652 34.1806C62.423 35.176 62.2097 36.1714 61.9964 37.0956ZM62.8496 31.3367L60.0056 31.1945C60.0056 30.7679 60.0056 30.3413 60.0056 29.9147C60.0056 29.4881 60.0056 28.9904 60.0056 28.5638L62.8496 28.4216C62.8496 28.9193 62.9207 29.417 62.9207 29.9147C62.8496 30.4124 62.8496 30.839 62.8496 31.3367ZM59.7212 25.9332C59.5791 25.08 59.4369 24.1557 59.2236 23.3025L61.9964 22.5916C62.2097 23.5158 62.423 24.5112 62.5652 25.4355L59.7212 25.9332ZM58.4415 20.8141C58.1571 19.9609 57.8016 19.1788 57.4461 18.3967L60.0056 17.1881C60.4322 18.0413 60.7877 18.9655 61.1432 19.8898L58.4415 20.8141ZM56.1663 15.9794C55.7397 15.1973 55.242 14.4863 54.6733 13.7753L56.9484 12.069C57.5172 12.8511 58.086 13.7042 58.5837 14.4863L56.1663 15.9794ZM52.9669 11.7846C52.6825 11.4291 52.3981 11.1447 52.0426 10.8603C51.7582 10.5759 51.4027 10.2204 51.0472 9.93602L52.9669 7.80306C53.3224 8.15856 53.6779 8.44295 54.0334 8.79844C54.3889 9.15393 54.6733 9.50943 55.0287 9.86492L52.9669 11.7846ZM49.0565 8.22965C48.3455 7.73196 47.6345 7.23427 46.8524 6.73658L48.3455 4.31923C49.1987 4.81692 49.9808 5.38571 50.7628 5.9545L49.0565 8.22965ZM16.9199 8.22965L15.2136 5.9545C15.9957 5.38571 16.8488 4.81692 17.6309 4.31923L19.124 6.73658C18.3419 7.16318 17.6309 7.66087 16.9199 8.22965ZM44.5773 5.45681C43.7952 5.10132 42.942 4.74583 42.1599 4.46143L43.0842 1.75969C44.0085 2.11518 44.9328 2.47067 45.7859 2.89726L44.5773 5.45681ZM21.4702 5.45681L20.2616 2.89726C21.1148 2.47067 22.039 2.11518 22.9633 1.75969L23.8876 4.46143C23.1055 4.74583 22.2523 5.10132 21.4702 5.45681ZM39.5293 3.67935C38.6761 3.46605 37.8229 3.32386 36.8986 3.18166L37.3252 0.337718C38.3206 0.479915 39.2449 0.693211 40.1692 0.906506L39.5293 3.67935ZM26.4471 3.67935L25.7362 0.906506C26.6604 0.693211 27.6558 0.479915 28.5801 0.337718L29.0067 3.18166C28.1535 3.32386 27.3003 3.46605 26.4471 3.67935ZM34.3391 2.89726C33.4148 2.89726 32.5616 2.89726 31.7084 2.89726L31.5662 0.0533239C32.5616 -0.0177746 33.4859 -0.0177746 34.4813 0.0533239L34.3391 2.89726Z" fill="#F86A2E"/>
<path d="M54.1045 51.031L52.1137 49.0402C52.4692 48.6847 52.7536 48.4003 53.038 48.0448L55.1709 49.9645C54.8154 50.32 54.46 50.6755 54.1045 51.031Z" fill="#F86A2E"/>
</svg>
